X: 154
T:Marcha de Procesión (1, de Pontevedra)
M:6/8
L:1/16
Q:200
C:Trad
R:Marcha
K:C
G2 |: c4"~"G2 E2CDEF | AGEGFD GEC2G2 | c4 "~"G2 E2 CDEF |1
AGEGFD C4 G2 :|2 AGEGFD C4 E2 |: D3B,D2 "~"E2CDEF | AGEGFD GE C2G2|
"~"D3B,D2 "~"E2CDEF |1 AGEGFDC4 E2 :|2 AGEGFDC4 G2 ||

